X: 13508
T: Flowers Of Edinburgh, The
R: reel
M: 4/4
K: Gmajor
|:GE|D2DE G2GA|BABd cBAG|FGFE DEFG|ABAF E2GE|
D2DE G2GA|BABd e/f/g fe|dcBA GFGA|B2G2 G2:|
|:Bd|g2g2 gbag|fdfd fagf|e2ef gfed|B2e2 e2ge|
dBGB d3B|cdef gage|dcBA GFGA|B2G2 G2:|

